!!!ONB: MCCC : IEE0094_01 : Extracted Monophonic Melody
!!!COM: Elgar, Edward
!!!OPR: Violin Concerto
!!!OMV: 1
!!!SCT: Op.61
!!!ODT: 1905///
**kern
*staff1
*clefG2
*k[f#c#]
*D:
*M4/4
4fff#
4r
4fff#
=6
8eee
8bb
2aa
4r
=7
4.fff#
8ddd
4ccc#
4r
=8
1r
=9
4ddd
8ddd
16bb[
16bb]
4.aa
8ff#
=10
4ee
8ee
16cc[
16cc]
4.b
8g
=11
4f#
4r
2r
=12
2r
4fff#
24eee
24ccc
24aa
24ff#
24ee
24cc
=13
4b
4r
4aa
4gg
=14
2r
4r
24aaa
24fff
24ddd
24bb
24aa
24ff
=15
4ee
4r
2r
=16
2r
4r
8ccc
8aa
=17
4eee
4r
2r
=18
1r
=19
1r
=20
2r
24ee
24ff#
24gg#
24aa
24bb
24ccc
24bb
24ccc
24ddd
24eee
24fff#
24ggg#
=21
4aaa
4eee
4aaa
4fff
=22
8ddd#
4eee
8bb
4ddd
4ccc#
=23
1r
=24
1r
=25
4.ff#
8ff#
4ff#
4ee
=26
4b
8cc#
8g
4b
4a#
=27
4dd
8ee
8b
4dd
4cc#
=28
4ee
4dd
2cc#
=29
2r
4aaa
4ggg
=30
1r
=31
4.ee
8eee
4eee
4ddd
=32
1r
=33
1r
=34
2.cc#
4b
=35
4g#
4r
2r
=36
2.a
4g#
=37
4c#
4r
2r
=38
4r
4e
4g#
4f#
=39
4e
4r
2r
=40
2r
4r
4f#
=41
4a
4g#
4f#
4d
=42
4c#
4d
4c#
4r
=43
4r
8g
8a
8.b
16dd
4dd[
=44
4dd]
4cc
2r
=45
4r
8a#
8cc
8.dd
16ff
4ff[
=46
4ff]
4dd#
2r
=47
4r
8dd
8ee
8.ff#
16aa
4aa
=48
4aa#
4r
2r
=49
4.ddd
8aa#
4.gg
8aa
=50
4ff
4r
2r
=51
4.aa
8ff
4.dd
8ee
=52
4cc
4r
2r
=53
1r
=54
2r
32cc#
32dd
32cc#
32dd
32cc#
32dd
32cc#
32dd
32cc#
32dd
32cc#
32dd
48cc#
48dd
48ee
48ff#
48gg
48aa
=55
4bb
4r
32ee
32ff#
32ee
32ff#
32ee
32ff#
32ee
32ff#
32ee
32ff#
32ee
32ff#
48ee
48ff#
48gg
48aa
48bb
48ccc#
=56
4ddd
8ggg
8ddd
4.ccc#
8gg
=57
4.ff#
8cc#
2r
=58
8fff#
8ggg
16ggg
16ggg
8ddd
4ccc#
8ccc#
8gg
=59
8ee
8ff#
4r
2r
=60
2f#
4.g
8dd
=61
4b
4a#
4.b
8ff#
=62
2cc#
4.dd
8aa
=63
4ff#
4ff
4ff#[
4ff#]
=64
1r
=65
8r
4aaa
8ggg[
8ggg]
4fff
8fff#
=66
4ddd
4r
2r
=67
1r
=68
8eee
4.ddd
2fff#
=69
4fff#
4eee
4ccc
4r
=70
1r
=71
1r
=72
1r
=73
1r
=74
1r
=75
1r
=76
1r
=77
1r
=78
1r
=79
1r
=80
1r
=81
1r
=82
1r
=83
1r
=84
1r
=85
1r
=86
1r
=87
1r
=88
1r
=89
1r
=90
1r
=91
1r
=92
1r
=93
1r
=94
1r
=95
4r
4a
4r
4a
=96
4r
4cc#
4r
4cc
=97
4g#
2ee
4dd#
=98
4cc#
4r
2r
=99
4gg
8gg#
8dd#
4ff#
4ee#
=100
4ff#
4r
2r
=101
2r
4ccc
8ccc#
8gg
=102
4ff#
4r
2r
=103
4ee
4dd
2r
=104
1r
=105
2r
4bb
8aa
8ff
=106
1r
=107
1r
=108
8r
8bb
8r
8ccc
8r
8ddd#
8r
8eee
=109
8r
8ccc#
8r
8ddd
4r
24bb
24gg
24ee
24cc#
24b
24g
=110
4f#
4r
2r
=111
4r
4f
4f#
4f#[
=112
4f#]
4g
4cc#
8dd
8b
=113
4f
4r
2r
=114
1r
=115
1r
=116
4r
4g#
4a
4a[
=117
4a]
4a#
4ee
8ff
8dd
=118
4g#
4r
2r
=119
1r
=120
1r
=121
1r
=122
1r
=123
1r
=124
4gg
4ff
4ff
4dd#
=125
1r
=126
1r
=127
1r
=128
1r
=129
1r
=130
1r
=131
1r
=132
2r
4c
4d[
=133
4d]
4r
2r
=134
1r
=135
1r
=136
1r
=137
1r
=138
1r
=139
1r
=140
1r
=141
1r
=142
1r
=143
1r
=144
1r
=145
1r
=146
1r
=147
1r
=148
1r
=149
1r
=150
1r
=151
1r
=152
1r
=153
1r
=154
1r
=155
1r
=156
1r
=157
2r
4.dd
8dd
=158
4dd
4cc#
2r
=159
1r
=160
1r
=161
1r
=162
1r
=163
1r
=164
1r
=165
2r
4fff#
4fff
=166
2r
4fff
4ddd#
=167
4ccc#
4r
2r
=168
1r
=169
1r
=170
1r
=171
1r
=172
1r
=173
1r
=174
1r
=175
1r
=176
8r
8ff#
4gg
8ddd
8ccc
4bb
=177
1r
=178
1r
=179
4ff#
4gg#
4aa#
4bb
=180
4ff#
4gg#
4aa#
4bb
=181
4ccc#
4ddd#
4eee#
4fff#
=182
4ccc#
4ddd#
4eee#
4fff#
=183
1r
=184
2r
4bb
8ccc
8dd#
=185
4cc#
4r
4cc#
4b
=186
2r
4cc#
4b
=187
2r
4cc#
4b
=188
2r
4cc#
8.b
32r
32a
=189
4.ccc#
8ccc#
4ccc#
4bb
=190
8fff#
4ggg#
8ddd
4fff#
4fff
=191
8aaa
4bbb
8fff#
4aaa
4ggg#
=192
4ccc#
4r
2r
=193
4r
4aaa#
4r
4bbb
=194
1r
=195
4r
4bbb
4r
4bbb
=196
2fff#
2ggg
=197
2ggg
2ggg#
=198
2ggg#
2aaa
=199
4r
8gg
8aa
8.aa#
16ddd
4ddd[
=200
4ddd]
4r
2gg
=201
4r
8dd
8ee
8.ff
16aa
4aa[
=202
4aa]
8b
8cc
2dd
=203
12r
12cccc
12aaa
12eee
12fff
12ccc
2r
=204
1r
=205
8r
16r
16fff
4fff
2r
=206
1r
=207
2ccc#
4.ddd
8aaa
=208
8ggg
8ccc
4bb
2r
=209
2r
4r
8r
8bbb
=210
8aaa
8ddd
4ccc#
2r
=211
1r
=212
1r
=213
4bb
4aa
4gg
4r
=214
4ddd
8ccc[
8ccc]
4bb
4r
=215
2aaa
4ccc
4r
=216
4ggg
8fff[
8fff]
4eee
4r
=217
8r
8fff#
8r
8eee
8r
8ddd#
8r
8eee
=218
8r
8cccc
8r
8bbb
8r
8aaa#
8r
8bbb
=219
8r
8ggg
8r
8fff#
8r
8eee#
8r
8fff#
=220
8r
8ccc#
8r
8ddd
8r
8aa#
8r
8bb
=221
1r
=222
1r
=223
1r
=224
1r
=225
1r
=226
1r
=227
1r
=228
1r
=229
1r
=230
1r
=231
4r
8.f#
16g#
8a
8cc
4cc[
=232
4cc]
8cc
8dd
2dd#
=233
4dd
4r
2r
=234
1r
=235
1r
=236
1r
=237
1r
=238
1r
=239
1r
=240
1r
=241
1r
=242
1r
=243
1r
=244
2r
2b
=245
2g
4e
4r
=246
1r
=247
4ee
4dd
2cc#
=248
16b
16cc
16cc#
16dd
16dd#
16ff#
16aa#
16bb
16aa#
16bb
16ccc
16bb
16gg
16ee
16b
16g
=249
4f#
4r
2r
=250
1r
=251
1r
=252
2r
4ddd
8ccc
8aa
=253
4ee
4r
2r
=254
1r
=255
2r
4bb
8aa
8ff
=256
4ee
4r
2r
=257
4r
4d#
4e
4e[
=258
4e]
4f
4b
8cc
8a
=259
4d#
4r
2r
=260
1r
=261
1r
=262
4r
4f#
4g
4g[
=263
4g]
4g#
4dd
8dd#
8cc
=264
4f#
4r
2r
=265
1r
=266
1r
=267
1r
=268
1r
=269
4gg
4ff
2r
=270
8r
8ddd
8r
8ccc
8r
8ccc
8r
8aa#
=271
8r
8aa#
8r
8gg#
8r
8gg#
8r
8ff#
=272
4fff#
4eee
4eee
4ddd
=273
4ddd
2ccc
4aa#
=274
4aa
4r
2r
=275
1r
=276
1r
=277
1r
=278
1r
=279
1r
=280
1r
=281
1r
=282
1r
=283
1r
=284
4r
8f
8g
8.a
16cc
4cc
=285
4cc
4a#
2r
=286
4r
8a
8b
8.cc#
16gg
4gg
=287
4ff#
4r
2r
=288
2.aa
8gg#
8gg[
=289
4gg]
4ff#
2r
=290
2ddd
4ddd
4ccc#
=291
4bb
4aa
2r
=292
1r
=293
1r
=294
1r
=295
1r
=296
2r
4gg
4ff#
=297
1r
=298
2r
4.gg
8gg
=299
4gg
4ff#
2r
=300
1r
=301
1r
=302
1r
=303
2dd
16cc#
16ee
16ff#
16aa#
16ccc#
16eee
16fff#
16aaa#
=304
4bbb
4r
2r
=305
1r
=306
1r
=307
2ccc
2ff#
=308
2b
2g#
=309
4ddd
4bb
4gg
4ee
=310
4cc#
4r
2r
=311
4.fff#
8ddd
4.bb
8ff#
=312
2ee
8cc#
8dd
8b
8f#
=313
1r
=314
1r
=315
1r
=316
1r
=317
1r
=318
1r
=319
8r
8b
8cc
8gg
4ff
8b
8a
=320
4g
4r
2r
=321
4ee
4ff#
4gg#
4aa
=322
4ee
4ff#
4gg#
4aa
=323
4bb
4ccc#
4ddd#
4eee
=324
4bb
4ccc#
4ddd#
4eee
=325
4dd
4dd
4ff#
4ff#
=326
4aa#
4bb
4aa#
4bb
=327
4ddd
4r
4r
4ddd[
=328
4ddd]
4r
4r
4fff#[
=329
4fff#]
4r
2r
=330
1r
=331
4cccc
8bbb
8fff#
4fff#
4eee
=332
1r
=333
2f#
2d[
=334
2d]
2f
=335
8ddd
4ccc#
8aa
8ggg#
4fff#
8ddd#
=336
4ddd#
4ccc#
2r
=337
1r
=338
1r
=339
1r
=340
2r
8ccc#
4.bb
=341
1r
=342
1r
=343
2.ee
4r
=344
2.b
4r
=345
4f#
4r
2r
=346
4f#
4r
2r
=347
4f#
4r
2r
=348
4r
8r
16r
16ff#
4cc#
8r
16r
16aa
=349
4dd#
4r
4r
8r
16r
16ddd
=350
4a#
8.b
16ff#
4cc#
8.dd
16aa
=351
4dd#
8.ee
16bb
4ff#
8gg
8gg#
=352
4ff#
4r
2r
=353
1r
=354
1r
=355
1r
=356
1r
=357
2r
4r
4ee
=358
4ff#
4r
2r
=359
1r
=360
8ccc#
8cc#
8bb
8b
8gg
8g
4dd
=361
4cc#
4g
4e
4r
=362
4r
4bb
2ccc
=363
4r
4bb
2ccc
=364
1r
=365
2r
4fff#
4ccc
=366
1r
=367
1r
=368
4bbb
4r
4ff#
4r
=369
4b
4r
2r
==
*-
